icon-themes/elementary_svg/cmd/sc_opentemplate.svg

<?xml version="1.0" encoding="UTF-8" standalone="no"?>
<svg
   xmlns:dc="http://purl.org/dc/elements/1.1/"
   xmlns:cc="http://creativecommons.org/ns#"
   xmlns:rdf="http://www.w3.org/1999/02/22-rdf-syntax-ns#"
   xmlns:svg="http://www.w3.org/2000/svg"
   xmlns="http://www.w3.org/2000/svg"
   xmlns:xlink="http://www.w3.org/1999/xlink"
   xmlns:sodipodi="http://sodipodi.sourceforge.net/DTD/sodipodi-0.dtd"
   xmlns:inkscape="http://www.inkscape.org/namespaces/inkscape"
   height="16"
   width="16"
   version="1.1"
   id="svg13"
   sodipodi:docname="sc_opentemplate.svg"
   inkscape:version="0.92.3 (unknown)"
   inkscape:export-filename="/home/rizmut/Dokumen/Rizmut/Github/libreoffice-style-elementary/images_elementary/cmd/sc_opentemplate.png"
   inkscape:export-xdpi="96"
   inkscape:export-ydpi="96">
  <metadata
     id="metadata19">
    <rdf:RDF>
      <cc:Work
         rdf:about="">
        <dc:format>image/svg+xml</dc:format>
        <dc:type
           rdf:resource="http://purl.org/dc/dcmitype/StillImage" />
        <dc:title></dc:title>
      </cc:Work>
    </rdf:RDF>
  </metadata>
  <defs
     id="defs17">
    <linearGradient
       x1="-162.6788"
       y1="58.56691"
       x2="-162.6788"
       y2="80.030975"
       id="linearGradient5954"
       xlink:href="#h"
       gradientUnits="userSpaceOnUse"
       gradientTransform="matrix(0.50256996,0,0,0.39304699,93.341948,-15.857632)" />
    <linearGradient
       id="linearGradient4632-0-6-4-4-4">
      <stop
         id="stop4634-4-4-7-4"
         style="stop-color:#efdfc4;stop-opacity:1"
         offset="0" />
      <stop
         id="stop4636-3-1-5-9"
         style="stop-color:#e7c591;stop-opacity:1"
         offset="1" />
    </linearGradient>
    <linearGradient
       y2="8.1379128"
       y1="2.8214202"
       x2="11.050709"
       x1="11.050709"
       id="linearGradient10270-0-8"
       xlink:href="#34542"
       gradientUnits="userSpaceOnUse"
       gradientTransform="matrix(0.89189031,0,0,0.94046961,3.1344631,6.3465397)" />
    <linearGradient
       id="34542">
      <stop
         style="stop-color:#ffffff;stop-opacity:1"
         offset="0"
         id="stop3456-4-9-38-1-8" />
      <stop
         style="stop-color:#ffffff;stop-opacity:0.23529412"
         offset="0.002736"
         id="stop3458-39-80-3-5-5" />
      <stop
         style="stop-color:#ffffff;stop-opacity:0.15686275"
         offset="0.99001008"
         id="stop3460-7-0-2-4-2" />
      <stop
         style="stop-color:#ffffff;stop-opacity:0.39215687"
         offset="1"
         id="stop3462-0-9-8-7-2" />
    </linearGradient>
    <linearGradient
       y2="200.5"
       y1="198"
       x2="16"
       x1="16"
       id="linearGradient4724"
       xlink:href="#46464"
       gradientUnits="userSpaceOnUse"
       gradientTransform="translate(-8.0095169,-192)" />
    <linearGradient
       id="46464">
      <stop
         style="stop-color:#f9f9f9;stop-opacity:1"
         offset="0"
         id="stop4648-8-0-3-6" />
      <stop
         style="stop-color:#d8d8d8;stop-opacity:1"
         offset="1"
         id="stop4650-1-7-3-4" />
    </linearGradient>
    <linearGradient
       y2="21"
       y1="9"
       x2="13"
       x1="13"
       gradientUnits="userSpaceOnUse"
       id="h"
       gradientTransform="translate(-33.588172,-9.6010247)">
      <stop
         id="stop39"
         stop-color="#b4cee1"
         offset="0" />
      <stop
         id="stop41"
         stop-color="#5d9fcd"
         offset="1" />
    </linearGradient>
  </defs>
  <sodipodi:namedview
     pagecolor="#ffffff"
     bordercolor="#666666"
     borderopacity="1"
     objecttolerance="10"
     gridtolerance="10"
     guidetolerance="10"
     inkscape:pageopacity="0"
     inkscape:pageshadow="2"
     inkscape:window-width="1366"
     inkscape:window-height="706"
     id="namedview15"
     showgrid="true"
     inkscape:zoom="10.429825"
     inkscape:cx="-3.8092179"
     inkscape:cy="6.8868295"
     inkscape:window-x="0"
     inkscape:window-y="0"
     inkscape:window-maximized="1"
     inkscape:current-layer="g1095">
    <inkscape:grid
       type="xygrid"
       id="grid1101" />
  </sodipodi:namedview>
  <linearGradient
     id="a"
     gradientTransform="matrix(-.99749995 0 0 -.99749995 45.982263 33.857733)"
     gradientUnits="userSpaceOnUse"
     x1="35.452969"
     x2="35.452969"
     y1="31.550577"
     y2="18.89035">
    <stop
       offset="0"
       stop-color="#fff"
       id="stop2" />
    <stop
       offset="1"
       stop-color="#fff"
       stop-opacity="0"
       id="stop4" />
  </linearGradient>
  <path
     inkscape:connector-curvature="0"
     d="m 15.51366,6.4999997 v -2.773333 c 0,-0.1385 -0.1115,-0.25 -0.25,-0.25 H 8.5136601 v -0.71875 c 0,-0.1385 -0.1115,-0.25 -0.25,-0.25 h -6.5 c -0.1385,0 -0.25,0.1115 -0.25,0.25 v 0.71875 H 0.76366013 c -0.1385,0 -0.25,0.1115 -0.25,0.25 v 2.773333"
     id="rect4170"
     style="color:#000000;display:inline;overflow:visible;visibility:visible;opacity:0.5;vector-effect:none;fill:none;fill-opacity:1;stroke:#7e8087;stroke-width:0.99200022;stroke-linecap:square;stroke-linejoin:miter;stroke-miterlimit:4;stroke-dasharray:none;stroke-dashoffset:0;stroke-opacity:1;marker:none;enable-background:accumulate" />
  <path
     inkscape:connector-curvature="0"
     style="color:#000000;display:inline;overflow:visible;visibility:visible;fill:url(#linearGradient4724);fill-opacity:1;fill-rule:nonzero;stroke:none;stroke-width:0.99992168;marker:none;enable-background:accumulate"
     id="rect4170-0-9"
     d="m 1.9904831,2.9999997 v 1 H 0.99048313 v 4 H 14.990483 v -4 H 7.9904831 v -1 z" />
  <g
     id="g1095">
    <path
       id="path7"
       d="M 15.533898,14.550847 0.5,0.5 0.53389831,14.550847 Z M 8.5338993,11.550846 h -5 L 3.500001,7.5 Z"
       inkscape:connector-curvature="0"
       style="fill:#e9e9e9;fill-rule:evenodd"
       sodipodi:nodetypes="cccccccc" />
    <path
       id="path9"
       d="M 13.127241,13.550847 1.5,2.87516 1.5338983,13.550847 Z"
       inkscape:connector-curvature="0"
       style="fill:none;stroke:url(#a)"
       sodipodi:nodetypes="cccc" />
    <path
       id="path11"
       d="M 15.533898,14.550847 0.5,0.5 0.53389831,14.550847 Z M 8.5338993,11.550846 h -5 L 3.500001,7.5 Z"
       inkscape:connector-curvature="0"
       style="fill:none;stroke:#8c8c8c;stroke-linejoin:round"
       sodipodi:nodetypes="cccccccc" />
  </g>
  <path
     inkscape:connector-curvature="0"
     d="m 0.49034013,7.4999996 14.99999987,1e-7 V 15.5 L 0.49033973,15.48885 Z"
     id="rect3086-0"
     style="color:#000000;display:inline;overflow:visible;visibility:visible;opacity:1;vector-effect:none;fill:url(#linearGradient5954);fill-opacity:1;stroke:#246898;stroke-width:0.99999994;stroke-linecap:butt;stroke-linejoin:round;stroke-miterlimit:4;stroke-dasharray:none;stroke-dashoffset:0;stroke-opacity:0.49803922;marker:none;enable-background:accumulate" />
  <path
     inkscape:connector-curvature="0"
     style="color:#000000;display:inline;overflow:visible;visibility:visible;opacity:0.5;fill:none;stroke:url(#linearGradient10270-0-8);stroke-width:1.00000012;stroke-linecap:round;stroke-linejoin:miter;stroke-miterlimit:4;stroke-dasharray:none;stroke-dashoffset:0;stroke-opacity:1;marker:none;enable-background:accumulate"
     id="rect3086-9-2"
     d="M 14.490483,8.4999997 V 14.5 L 1.5137931,14.46122 1.4904831,8.4999997 Z" />
</svg>

<svg xmlns="http://www.w3.org/2000/svg" xmlns:xlink="http://www.w3.org/1999/xlink" height="16" width="16"><defs><linearGradient x1="-162.679" y1="58.567" x2="-162.679" y2="80.031" id="f" xlink:href="#a" gradientUnits="userSpaceOnUse" gradientTransform="matrix(.50257 0 0 .39305 93.342 -15.858)"/><linearGradient y2="8.138" y1="2.821" x2="11.051" x1="11.051" id="g" xlink:href="#b" gradientUnits="userSpaceOnUse" gradientTransform="matrix(.8919 0 0 .94047 3.134 6.347)"/><linearGradient id="b"><stop offset="0" stop-color="#fff"/><stop offset=".003" stop-color="#fff" stop-opacity=".235"/><stop offset=".99" stop-color="#fff" stop-opacity=".157"/><stop offset="1" stop-color="#fff" stop-opacity=".392"/></linearGradient><linearGradient y2="200.5" y1="198" x2="16" x1="16" id="d" xlink:href="#c" gradientUnits="userSpaceOnUse" gradientTransform="translate(-8.01 -192)"/><linearGradient id="c"><stop offset="0" stop-color="#f9f9f9"/><stop offset="1" stop-color="#d8d8d8"/></linearGradient><linearGradient y2="21" y1="9" x2="13" x1="13" gradientUnits="userSpaceOnUse" id="a" gradientTransform="translate(-33.588 -9.6)"><stop stop-color="#b4cee1" offset="0"/><stop stop-color="#5d9fcd" offset="1"/></linearGradient></defs><linearGradient id="e" gradientTransform="matrix(-.9975 0 0 -.9975 45.982 33.858)" gradientUnits="userSpaceOnUse" x1="35.453" x2="35.453" y1="31.551" y2="18.89"><stop offset="0" stop-color="#fff"/><stop offset="1" stop-color="#fff" stop-opacity="0"/></linearGradient><path d="M15.514 6.5V3.727c0-.14-.112-.25-.25-.25h-6.75v-.72c0-.138-.112-.25-.25-.25h-6.5c-.14 0-.25.112-.25.25v.72h-.75c-.14 0-.25.11-.25.25V6.5" color="#000" overflow="visible" opacity=".5" fill="none" stroke="#7e8087" stroke-width=".992" stroke-linecap="square"/><path d="M1.99 3v1h-1v4h14V4h-7V3z" color="#000" overflow="visible" fill="url(#d)"/><path d="M15.534 14.55L.5.5l.034 14.05zm-7-3h-5L3.5 7.5z" fill="#e9e9e9" fill-rule="evenodd"/><path d="M13.127 13.55L1.5 2.876l.034 10.676z" fill="none" stroke="url(#e)"/><path d="M15.534 14.55L.5.5l.034 14.05zm-7-3h-5L3.5 7.5z" fill="none" stroke="#8c8c8c" stroke-linejoin="round"/><path d="M.49 7.5h15v8l-15-.01z" color="#000" overflow="visible" fill="url(#f)" stroke="#246898" stroke-linejoin="round" stroke-opacity=".498"/><path d="M14.49 8.5v6l-12.976-.04L1.49 8.5z" color="#000" overflow="visible" opacity=".5" fill="none" stroke="url(#g)" stroke-linecap="round"/></svg>
